X: 2997
T: Battering Ram, The
R: jig
M: 6/8
K: Gmajor
B|dBA BdA|~G3 G2B|dBA BdA|~G3 efg|
dBA ABA|GED ~G3|AGE A2B|GED D2B|
dBA BdA|~G3 G2B|dBA BdA|GB/c/d efg|
dBA ABA|GED ~G3|AGE A2B|GED D3|
deg a2b|ged edB|deg a2b|gag g2e|
deg a2b|ged edB|dBG A2B|GED D3|
deg a2b|ged edB|deg a2b|gag g2e|
deg a2b|ged edB|dBG A2B|GED D2||

